X:1
T:Fondo Turquí
T:Fondo Turquí
T:(Reliquia) Bolero 1920 
T:Música Andrés Acosta 
T: Letra Eliézer Trejo Cámara 
T:JuanCarlos Guerrero
T:JuanCarlos Guerrero
T:JuanCarlos Guerrero
C:Andres Acosta
Z:Eliézer Trejo Cámara
Z:JuanCarlos Guerrero
%%score { 1 | 2 }
L:1/8
Q:1/4=126
M:4/4
K:Bb
V:1 treble nm="Piano" snm="Pno."
V:2 bass 
V:1
"Gm" [B,D]2 [B,D][B,D]- [B,D][B,D] D2 | [Bd]8 | z2 [ce]2 [Ac]2 [^FA]2 |"D7" [EG]3 [D^F] [DF]4- | %4
w: ||||
 [D^F]4 z [D^F] [DF][FA] | [Ac]2 [GB][^FA]- [FA][Ac][GB][FA] | [Ac]2 [GB][^FA]- [FA][Ec][DB][CA] | %7
w: |||
"Gm" [B,G]2 [B,G][B,G]- [B,G] [B,G]2 [B,G] | [B,G] z D2 _D2 C2 |: %9
w: ||
"Gm" [B,=D]2 [B,D] [B,D]2 [DG]2 [GB] | [Bd]8 | z2 [ce]2 [Ac]2 [^FA]2 |"D7" [EG]3 [DF]- [DF]4- | %13
w: En un fon- do tur-|quí,|tro- zo de|cie- lo, _|
 [DF]4 z [^FA] [FA][GB] | [Ac]2 z2 z2 z [GB] | [Ac]3 [GB]- [GB][Ac] [Bd]2 |"Gm" [Ac]3 [GB]- [GB]4 | %17
w: _ voy aen gar|zar tus|he- chi _ ce- ros|o- jos _|
 G2 Bd- dB G2 |"Eb" [EG]2 [EG][EG]- [EG] [EG]2 [EG] | [GB]2 [GB]4 [FA][EG] | %20
w: _ _ _ _ _ _|y con un _ ne- gro|bu- cle de tu|
"D7" [EG]3 [D^F]- [DF]4- | [DF]4 z4 |"Gm" [Bd]2 [Ac][ce]- [ce] [Bd]2 [Bg] |"D7" [A^f]8 | %24
w: pe- lo _|_|te for- ma- ré un co-|llar|
 z4 [^Fd][Fd] [Fd]2 |"Gm" [Ec]3 [DB]- [DB]4 |1 z2 D2 _D2 C2 :|2 z4 z [fa] [gb][_a_c'] || %28
w: a mis an-|to- jos. _|||
"F7" [=a=c']2 [ac'][_a_c'] z [=a=c'] [=a_c']2 | [=a=c']2 z2 (3[Bd]2 [=ce]2 [GB]2 |: %30
w: |* E- sa re-|
"F7" [Bd] [Ac]3 z4 | z2 [Ec][D=B]- [DB] [Ec]2 [Ge] |"Bb" [Fd]3 [D_B]- [DB]4 | z8 | %34
w: li- quia,|de mi a- mor, pri|me- ra, _||
"Bb" [Fd]2 [Fd][Fd]- [Fd] [Fd]2 [Fd] |"A7" [=E^c]2 [Ec]2 z2 [G=e][A^f] |"D7" [Ge]3 [^Fd]- [Fd]4 | %37
w: se- rá la _ sal- va-|guar- dia de mi|vi- da, _|
 z8 |"Cm" [ce]2 [ce][ce]- [ce][Bd] [ce]2 | [df][ce] z2 (3z2 [Bd]2 [Ac]2 |"Gm" [ce]3 [Bd]- [Bd]4 | %41
w: |la lle- va- ré en el|pe- cho mien- tras|vi- va. _|
 GD=E^F GABc |"Gm" [Bd]2 [Bd][Bd]- [Bd] [Bd]2 [_eg] |"D7" [d^f]3 [ce]- [ce] [^Fd]2 [FA] |1 %44
w: _ _ _ _ _ _ _ _|la lle- va- ré en el|al- ma _ cuan do|
"Gm" [Ac]3 [GB]- [GB]4 | z4 z [fa] [gb][_a_c'] |"F7" [=a=c']2 [ac'][_a_c'] z [=a=c'] [_a_c']2 | %47
w: mue- ra. _|||
 [=a=c']2 z2 (3[Bd]2 [=ce]2 [GB]2 :|2"Gm" [Ac]3 [GB]- [GB]4 || z g ^fe"D7" dcBA | %50
w: * E- sa re-|mue- ra. _||
"Gm" G z z2 [B,DG]4- | [B,DG]8- | [B,DG] z z2 z4 |] %53
w: |||
V:2
 G,,3 E,2- E, D,,2 | G,,3 D,- D,2 D,,2 | G,,3 D,- D,2 D,,2 | G,,3 D,- D,2 D,,2 | %4
 G,,3 D,- D,2 D,,2 | G,,3 D,- D,2 D,,2 | G,,3 D,- D,2 D,,2 | G,,3 D,- D,2 D,,2 | %8
 G,, z F,,2 =F,,2 ^F,,2 |: G,,3 D,- D,2 D,,2 | G,,3 D,- D,2 D,,2 | G,,3 D,- D,2 D,,2 | %12
 G,,3 D,- D,2 D,,2 | G,,3 D,- D,2 D,,2 | G,,3 D,- D,2 D,,2 | G,,3 D,- D,2 D,,2 | %16
 G,,3 D,- D,2 D,,2 | G,,2 B,,D,- D,B,, G,,2 | E,,3 [B,,G,]- [B,,G,]2 G,,2 | %19
 E,,3 [B,,G,]- [B,,G,]2 G,,2 | D,,3 [A,,^F,]- [A,,F,]2 ^F,,2 | D,,3 [A,,^F,]- [A,,F,]2 ^F,,2 | %22
 G,,3 [D,B,]- [D,B,]2 B,, z | D,,3 [A,,^F,]- [A,,F,]2 ^F,,2 | D,,3 [A,,^F,]- [A,,F,]2 ^F,,2 | %25
 G,,3 [D,B,]- [D,B,]2 B,,2 |1 G,,2 D,,2 =E,,2 ^F,,2 :|2 G,,2 D,2 G,4 || F,,3 C,- C,2 F,2 | %29
 F,,2 z2 z4 |: F,,3 [E,A,]- [E,A,]2 C,2 | F,,3 [E,A,]- [E,A,]2 C,2 | B,,3 [D,A,]- [D,A,]2 F,,2 | %33
 B,,3 [D,A,]- [D,A,]2 F,,2 | B,,3 [D,A,]- [D,A,]2 F,,2 | A,,3 [^C,A,]- [C,A,]2 =E,,2 | %36
 D,,3 [A,,^F,]- [A,,F,]2 ^F,,2 | D,,3 [A,,^F,]- [A,,F,]2 ^F,,2 | C,3 [G,E]- [G,E]2 E,2 | %39
 C,3 [G,E]- [G,E]2 E, z | G,,3 [D,B,]- [D,B,]2 B,,2 | G,D,=E,^F, G,A,B,C | D2 B,2 G,2 D,2 | %43
 D,,3 [A,,^F,]- [A,,F,]2 ^F,,2 |1 G,,3 [D,B,]- [D,B,]2 B,,2 | G,,2 D,2 G,4 | F,,3 C,- C,2 F,2 | %47
 F,,2 z2 z4 :|2 G,,3 [D,B,]- [D,B,]2 B,,2 || G,, z z2 [D,^F,A,C]4 | F,, z z2 [G,,G,]4- | %51
 [G,,G,]8- | [G,,G,] z z2 z4 |] %53

